X: 10044
T: Dick Harmon's
R: reel
M: 4/4
K: Adorian
EA (3AAA EA (3AAA|EAGB cABG|E (3GGG FGGA|(3Bcd ge dBAG|
EAcA eA (3AAA|EAGB cdef|(ggg eg dGBd|cAB^G A2:|
eaab agef|gedc BG (3GGG|DEGA BGBd|gedc B (3GGG|
eaa^g a=gef|ga (3bag a2 ef|g2 eg dGBd|cAB^G A2:|

